X:1
T:Title
%%score ( 1 2 ) { 3 | 4 }
L:1/8
Q:1/4=110
M:4/4
K:A
V:1 treble nm="Grand Piano, Soprano"
V:2 treble 
V:3 treble nm="Choir Pad, San Bernardino, 11.11.11 D"
V:4 bass 
V:1
 [CE]2 [DF]2 [EG]2 [EA]2 | [DA]4 [DG]4 | [DG]2 [DF]2 [DG]2 [DF]2 | [DF]4 [CE]4 | %4
w: By~Anonymous,~chorus~by~M.~S.~Sloane * * *||||
 [CE]2 [EA]2 [Ac]2 [=Ge]2 | e2 d2 A2 B2 | [Ec]2 [Ac]2 [Ac]2 [GB]2 | [EA]8 | %8
w: ||||
[M:3/4] [Ec][EB] [EA]2 [DF]2 | .G2 z2 z2 | [GB][=G^A] [^GB]2 [DE]2 | [Cc]4 z2 | %12
w: ||||
 [Fd][Fc] [FB]2 [F^A]2 | [Ec]2 [FB]2 z2 | [^DA][DG] [=DG]2 [DF]2 | [DB]6 | [Ec][EB] [EA]2 [DF]2 | %17
w: |||||
 .G2 z2 z2 | [GB][G^A] [GB]2 [DE]2 | [Cc]4 z2 | [Fc][Fc] [^Ae]2 [Ac]2 | BA [^DF]4 | %22
w: |||||
 [DA][DG] [Gc]2 [GB]2 | A6- | A2 z2 z2 |] %25
w: |||
V:2
 x8 | x8 | x8 | x8 | x8 | F4 F4 | x8 | x8 |[M:3/4] x6 | D-[DF] [DE]4 | x6 | x6 | x6 | x6 | x6 | %15
 x6 | x6 | D-[DF] [DE]4 | x6 | x6 | x6 | ^D2 z2 z2 | x6 | x6 | x6 |] %25
V:3
 A,2 C2 D2 C2 | B,4[K:bass] B,4 | B,2 A,2 B,2 G,2 | A,8 | A,2 C2 E2 A,2 | A,4 A,4 | %6
 A,2[K:treble] E2 E2 D2 | C8 |[M:3/4] A,[K:bass]A, A,2 B,2 | B,A, G,4 | DC D2 G,2 | A,4 z2 | %12
 F,F, B,2 C2 | A,2 A,2 z2 | B,B, B,2 A,2 | G,6 | A,A, A,2 B,2 | B,A, G,4 | DD D2 G,2 | A,4 z2 | %20
 ^A,A, C2 C2 | B,2 B,4 | B,[K:treble]B, D2 D2 | C6- | C2 z2 z2 |] %25
V:4
 z2 A,2 B,2 A,2 | E,4 E,4 | E,2 E,2 E,2 E,2 | A,,8 | z2 A,,2 A,,2 C,2 | D,4 D,4 | E,2 E,2 E,2 E,2 | %7
 A,8 |[M:3/4] A,,A,, C,2 D,2 | E,2 E,4 | E,E, E,2 E,2 | A,,4 z2 | B,,B,, D,2 E,2 | D,2 ^D,2 z2 | %14
 F,F, E,2 E,2 | E,6 | A,,A,, C,2 D,2 | E,2 E,4 | E,E, E,2 E,2 | A,,4 z2 | F,F, F,2 F,2 | %21
 B,,2 B,,4 | E,E, E,2 E,2 | A,,6- | A,,2 z2 z2 |] %25

